src/images/icons/icon-dopprod-5-active.svg

<svg width="58" height="43" viewBox="0 0 58 43" fill="none" xmlns="http://www.w3.org/2000/svg">
<path d="M53 42.8H47.1V41.3H53C54.8 41.3 56.2 39.7 56.2 37.8V31.9H57.7V37.8C57.8 40.5 55.7 42.8 53 42.8ZM10.6 42.8H4.8C2.2 42.8 0 40.5 0 37.8V31.9H1.5V37.8C1.5 39.7 2.9 41.3 4.7 41.3H10.6V42.8ZM57.8 10.9H56.3V5C56.3 3.1 54.9 1.5 53.1 1.5H47.2V0H53.1C55.7 0 57.9 2.3 57.9 5V10.9H57.8ZM1.5 10.9H0V5C0 2.2 2.1 0 4.8 0H10.7V1.5H4.8C3 1.5 1.6 3.1 1.6 5V10.9H1.5Z" fill="#003067"/>
<path d="M41.3999 7.30005H39.3999V35.5H41.3999V7.30005Z" fill="#003067"/>
<path d="M32.8 7.30005H31.3V35.5H32.8V7.30005Z" fill="#003067"/>
<path d="M35.0999 7.30005H33.5999V35.5H35.0999V7.30005Z" fill="#003067"/>
<path d="M39.0999 7.30005H37.5999V35.5H39.0999V7.30005Z" fill="#003067"/>
<path d="M46.3999 7.30005H44.8999V35.5H46.3999V7.30005Z" fill="#003067"/>
<path d="M44.5999 7.30005H43.0999V35.5H44.5999V7.30005Z" fill="#003067"/>
<path d="M49.1 7.30005H48V35.5H49.1V7.30005Z" fill="#003067"/>
<path d="M16.5 7.30005H15V35.5H16.5V7.30005Z" fill="#003067"/>
<path d="M11.5 7.30005H8.69995V35.5H11.5V7.30005Z" fill="#003067"/>
<path d="M19.3 7.30005H17.3V35.5H19.3V7.30005Z" fill="#003067"/>
<path d="M26.9999 7.30005H25.8999V35.5H26.9999V7.30005Z" fill="#003067"/>
<path d="M28.3 7.30005H27.2V35.5H28.3V7.30005Z" fill="#003067"/>
<path d="M24.2 7.30005H22.2V35.5H24.2V7.30005Z" fill="#003067"/>
</svg>

<svg xmlns="http://www.w3.org/2000/svg" width="58" height="43" fill="none" viewBox="0 0 58 43">
	<path fill="#003067" d="M53 42.8h-5.9v-1.5H53c1.8 0 3.2-1.6 3.2-3.5v-5.9h1.5v5.9c.1 2.7-2 5-4.7 5zm-42.4 0H4.8c-2.6 0-4.8-2.3-4.8-5v-5.9h1.5v5.9c0 1.9 1.4 3.5 3.2 3.5h5.9v1.5zm47.2-31.9h-1.5V5c0-1.9-1.4-3.5-3.2-3.5h-5.9V0h5.9c2.6 0 4.8 2.3 4.8 5v5.9h-.1zm-56.3 0H0V5c0-2.8 2.1-5 4.8-5h5.9v1.5H4.8C3 1.5 1.6 3.1 1.6 5v5.9h-.1zM41.4 7.3h-2v28.2h2V7.3zM32.8 7.3h-1.5v28.2h1.5V7.3zM35.1 7.3h-1.5v28.2h1.5V7.3zM39.1 7.3h-1.5v28.2h1.5V7.3zM46.4 7.3h-1.5v28.2h1.5V7.3zM44.6 7.3h-1.5v28.2h1.5V7.3zM49.1 7.3H48v28.2h1.1V7.3zM16.5 7.3H15v28.2h1.5V7.3zM11.5 7.3H8.7v28.2h2.8V7.3zM19.3 7.3h-2v28.2h2V7.3zM27 7.3h-1.1v28.2H27V7.3zM28.3 7.3h-1.1v28.2h1.1V7.3zM24.2 7.3h-2v28.2h2V7.3z"/>
</svg>
